X: 85
T: Bumblebee in the Gourd Vine
B: canberra pickers and fiddlers
B: old time tunes update
B: tunes
M:C|
L:1/8
R: Reel
Q: 1/4=100
K:A
V:1 
AB|c2 cB c2 cB|cecA B-AFG|ABce cBAF|1ECEF- A2 :|2ECEF- A2A2||
|:"+"c2 "+"A2"+"c2 "+"A2|"+"c2 "+"A2 BAFA|"+"c2 "+"A2"+"c2 "+"A2|ECEF- A2A2:|
|:A,CEG A2Ac|BAFG A2AF|ECEG A2 cA|BAFG A2 ((3AGF|
E)CEG AGAc|BAFG A2AB|cecA BAFA|E[AA][AA]B A2:||
% abcbook-tune_id 67a7d9ece936a2d749cc831c
% abcbook-tune_composer_id 
% abcbook-link-0 https://www.youtube.com/watch?v=lUFbCWYMQmU
% abcbook-link-title-0 Bumblebee In The Gourdvine
% abcbook-boost 0
% abcbook-difficulty 0
% abcbook-tags old time tunes
% abcbook-tablature 
% abcbook-transpose 
% abcbook-tuning AEAC#
% abcbook-lastupdated 1739071608944
% abcbook-src-url 
% abcbook-soundfonts 
% abcbook-repeats 1


